X:461
%%etbk:tnset id:146,pos:1,rep:3x,ant:
%%etbk:tnset id:375,pos:1,rep:3x,ant:
%%etbk:wsite http://thesession.org/tunes/9695
%%etbk:video src:ytube,cde:ZsOyRXE5QXk,desc:
%%etbk:pldat 2016-08-18T18:19,2016-08-17T15:35,2016-08-16T15:32,2016-08-15T18:43,2016-08-11T18:15,2016-08-10T15:33,2016-08-08T18:13,2016-08-06T11:03,2016-03-11T17:24,2016-03-10T18:52,2016-03-09T17:24,2016-03-08T16:01,2016-02-04T18:48,2016-02-03T15:52,2016-02-02T16:25,2016-01-30T14:13,2016-01-28T18:55,2016-01-26T16:04,2016-01-23T15:18,2016-01-20T16:05,2016-01-17T12:51,2015-11-18T17:37,2015-09-08T17:51,2015-09-02T17:22,2015-08-27T18:44,2015-08-01T15:58,2015-07-30T18:17,2015-06-26T16:54,2015-06-24T18:30,2015-06-17T16:06,2015-06-16T15:47,2015-04-16T18:37,2015-04-15T16:01,2015-04-13T19:01,2015-04-12T10:22,2015-04-11T14:00,2015-04-08T17:01,2015-03-19T18:25,2015-03-18T16:25,2015-03-16T18:45,2015-03-15T15:01,2015-03-12T18:09,2015-03-10T17:40,2015-03-04T17:23,2015-03-03T18:36,2015-02-22T15:03,2015-02-21T16:23,2015-02-19T18:35,2015-02-18T15:31,2015-02-16T19:36,2015-02-14T13:59,2015-02-13T19:01,2015-02-12T19:16,2015-02-11T16:09,2015-02-10T16:40,2015-02-04T17:37,2015-02-02T19:46,2015-01-31T15:37,2014-04-06T15:20,2014-02-05T16:42,2013-05-13T17:57
T: An Raibh Tu Ar An gCarraig?
T: Were you at the Rock?
Z: Piano Box Version by Martin Fleischmann
H: Created 2013-02-19 /  Last Modified 2013-02-19
R: slow air
M: 3/4
L: 1/8
K: Edor
|: "E-Drone"(!tenuto!!2!e>{f}e/!1!d/ | !2!B4) (B!4!d | !5!e!tenuto!!2!e3) (ef | !4!g2 !tenuto!g>{a}g fe | !3!f2) (!tenuto!e>{f}e !1!(3d!2!B!1!A |
A!2!!1!B3) (!2!ef | !4!g2 !tenuto!g>{a}g fe | !3!f4) (e>{f}e/2!1!d/2 | !2!B2!tenuto!!5!!2!e>{f}e de |
!3!f2-f>{g}f e2 | !2!e4) (!4!g>{a}g/2f/2 | !2!e!1!d !tenuto!!2!B2 !1!(3AB!3!c | "B-Drone"!4!d>!2!B !tenuto!!1!B2) "E-Drone"(!4!gf | 
!2!e>{f}e/2!1!d/2 !tenuto!!2!B2-B!1!A | "D-Drone"!3!F4 FE | !1!D4) (EF | "E-Drone"!4!G>!3!G !tenuto!!1!G2) (!tenuto!!2!e/!1!d/!3!B/!1!G/ |
 "D-Drone"!3!F>F !tenuto!F2)  (AF | "A-Drone"!2!E4 DE  | !3!F4 E2 | !2!E4)||
  


